icons/stock-line.svg

<svg width="24" height="24" fill="none" xmlns="http://www.w3.org/2000/svg"><g clip-path="url(#a)"><path d="M8 5h3v9H8v3H6v-3H3V5h3V2h2v3ZM5 7v5h4V7H5Zm13 3h3v9h-3v3h-2v-3h-3v-9h3V7h2v3Zm-3 2v5h4v-5h-4Z" /></g><defs><clipPath id="a"><path fill="#fff" d="M0 0h24v24H0z"/></clipPath></defs></svg>

<svg xmlns="http://www.w3.org/2000/svg" width="24" height="24" fill="none"><g clip-path="url(#a)"><g><path fill="#121212" d="M8 5H11V14H8V17H6V14H3V5H6V2H8V5ZM5 7V12H9V7H5ZM18 10H21V19H18V22H16V19H13V10H16V7H18V10ZM15 12V17H19V12H15Z"/></g></g><defs><clipPath id="a"><rect width="24" height="24" fill="white"/></clipPath></defs></svg>
